src/assets/icons/arrow-down-left-and-arrow-up-right-to-center.svg

<svg width="14" height="14" viewBox="0 0 14 14" fill="none" xmlns="http://www.w3.org/2000/svg">
<g id="arrow-down-left-and-arrow-up-right-to-center">
<g clip-path="url(#clip0_295_4733)">
<path id="Vector" fill-rule="evenodd" clip-rule="evenodd" d="M12.9394 6.36364C13.2908 6.36364 13.5758 6.07873 13.5758 5.72727C13.5758 5.37582 13.2908 5.09091 12.9394 5.09091L9.80904 5.09091L13.8136 1.08634C14.0621 0.837827 14.0621 0.434904 13.8136 0.186388C13.5651 -0.0621282 13.1622 -0.0621295 12.9137 0.186385L8.90908 4.19096L8.90908 1.06061C8.90908 0.709152 8.62417 0.424243 8.27272 0.424243C7.92127 0.424243 7.63635 0.709152 7.63635 1.06061L7.63636 5.72727C7.63636 6.07873 7.92127 6.36364 8.27272 6.36364L12.9394 6.36364ZM1.06061 7.63636C0.709153 7.63636 0.424244 7.92127 0.424244 8.27273C0.424244 8.62418 0.709153 8.90909 1.06061 8.90909H4.19096L0.186387 12.9137C-0.0621289 13.1622 -0.0621289 13.5651 0.186387 13.8136C0.434902 14.0621 0.837825 14.0621 1.08634 13.8136L5.09091 9.80904V12.9394C5.09091 13.2908 5.37582 13.5758 5.72727 13.5758C6.07873 13.5758 6.36364 13.2908 6.36364 12.9394V8.27273C6.36364 7.92127 6.07873 7.63636 5.72727 7.63636H1.06061Z" fill="black"/>
</g>
</g>
<defs>
<clipPath id="clip0_295_4733">
<rect width="14" height="14" fill="white"/>
</clipPath>
</defs>
</svg>

<svg xmlns="http://www.w3.org/2000/svg" fill="none" viewBox="0 0 14 14"><g clip-path="url(#a)"><path fill="#000" fill-rule="evenodd" d="M12.94 6.364a.636.636 0 0 0 0-1.273H9.808l4.005-4.005a.636.636 0 0 0-.9-.9L8.909 4.191v-3.13a.636.636 0 1 0-1.273 0v4.666c0 .352.285.637.637.637zM1.06 7.636a.636.636 0 1 0 0 1.273h3.131L.186 12.914a.636.636 0 1 0 .9.9l4.005-4.005v3.13a.636.636 0 0 0 1.273 0V8.273a.636.636 0 0 0-.637-.637z" clip-rule="evenodd"/></g><defs><clipPath id="a"><path fill="#fff" d="M0 0h14v14H0z"/></clipPath></defs></svg>
